X:1
T: Miss Heather Grant McLoughlin
C:Bruce Shawyer
R:Jig
Q:180
K:G
M:6/8
L:1/16
D2|G4G2 G2A2B2|A4A2 A2F2D2|G4G2 G2A2B2|A6 d4D2|G4G2 G2A2B2|A4A2 A2F2D2|E2F2G2 A2F2D2|G6 G4D2|
G4G2 G2A2B2|A4A2 A2F2D2|G4G2 G2A2B2|A6 d4D2|G4G2 G2A2B2|A4A2 A2F2D2|E2F2G2 A2F2D2|G6 G4d2|
g4g2 g2d2B2|e4e2 e2c2A2|d4d2 d2c2B2|A2B2c2 d2e2f2|g4g2 g2d2B2|e4e2 e2c2A2|d2c2B2 A2G2F2|G6 G4d2|
g4g2 g2d2B2|e4e2 e2c2A2|d4d2 d2c2B2|A2B2c2 d2e2f2|g4g2 g2d2B2|e4e2 e2c2A2|d2c2B2 A2G2F2|G6 G4||
